public/avatar/body/64.svg

<svg xmlns:xlink="http://www.w3.org/1999/xlink" height="82" width="84.85" xmlns="http://www.w3.org/2000/svg"><g transform="translate(37.4 42.25)"><use height="38" transform="translate(-11.95 -17.45)" width="32.05" xlink:href="#a"/><use height="38.95" transform="translate(-12.45 -17.95)" width="33.05" xlink:href="#b"/><use height="21.85" transform="translate(-12.55 -.6)" width="33.9" xlink:href="#c"/></g><defs><path d="M27.35 7.4q2.15 4.15 3.55 8.75 1.45 4.7 1.15 9.5-.35 4.95-4.2 8.1-3.8 3.2-8.75 4.05l-2.6.2q-3.6 0-7.05-1.15-4.65-1.6-7.1-5.5Q-.2 27.4.05 23q.2-4.4 2-9.3Q3.85 8.75 7 5.05 10.1 1.3 14.7.1l1.8-.1q1.9.05 3.7.8 4.75 2.05 7.15 6.6" fill="#fff" fill-rule="evenodd" transform="translate(-.05)" id="d"/><path d="M27.35 7.4Q24.95 2.85 20.2.8 17.55-.3 14.7.1 10.1 1.3 7 5.05q-3.15 3.7-4.95 8.65-1.8 4.9-2 9.3-.25 4.4 2.3 8.35 2.45 3.9 7.1 5.5 4.65 1.55 9.65.95 4.95-.85 8.75-4.05 3.85-3.15 4.2-8.1.3-4.8-1.15-9.5-1.4-4.6-3.55-8.75Z" fill="none" stroke="#000" stroke-linecap="round" stroke-linejoin="round" transform="translate(.45 .5)" id="e"/><use height="38" width="32.05" xlink:href="#d" id="a"/><use height="38.95" width="33.05" xlink:href="#e" id="b"/><g id="c"><path d="m7.6 19.65-3.65.45-4.75-.5-5-2.1-1.5-.85-3.15-3.65q5 2.5 14.4 2.5 9.8 0 14.6-2.75L16.7 15.1l-2.35 2-2.65 1.65-4.1.9" fill="#003427" fill-rule="evenodd" transform="translate(12.55 .6)"/><path d="M4.3 8.55q4.75 0 14.15-5.7l-3.5 7-1.5 5.5L4.1 16.6l-8.75-.5-6.15-12.85q10.35 5.3 15.1 5.3" fill="#8d9caf" fill-rule="evenodd" transform="translate(12.55 .6)"/><path d="M-3.2 15.85q.9 5.25-.35 5.4l-4.75-.05q-3.85-.25-4.1-.85-.35-.95.1-7.55l.5-6.45 8.6 9.5" fill="#000909" fill-rule="evenodd" transform="translate(12.55 .6)"/><path d="M18.45 2.85q-1.8 1.85-6.3 3.5Q7.65 7.95 4.2 8q-8 .1-15.25-5.5" fill="none" stroke="#000" stroke-linecap="round" stroke-linejoin="round" transform="translate(12.55 .6)"/><path d="m4.7 8 4.5 4 8.1-5.6M3.2 8.1l-3.65 4.25-9.1-5.95" fill="none" stroke="#000" stroke-linecap="round" stroke-linejoin="round" transform="translate(12.55 .6)"/><path d="m3.5 11.45.65-.25.3 7.05-1-.05.05-6.75m1.6-.3.65-.1 1.05 6.8-1.2.65-.5-7.35" fill-rule="evenodd" transform="translate(12.55 .6)"/><path d="M3.85 7.6Q6.3 7.35 6.6 8.75q.4 1.7-.5 2.95-.65.85-1.8.9-.95 0-1.6-.65-.7-.75-.7-2.3L2.05 9q0-1.25 1.8-1.4" fill="#345659" fill-rule="evenodd" transform="translate(12.55 .6)"/><path d="m1.05 6.7 3.15.9q1.8 0 4.1-1.3.65-.4 1.25.2.55.6.05 1.25-1.95 2.8-5.3 2.8-2.05 0-3.5-1.2l-1.15-1.3q-.35-.7.2-1.2.6-.6 1.2-.15" fill="#345659" fill-rule="evenodd" transform="translate(12.55 .6)"/><path d="M4.3 9.55q-1.7 0-2.9-1l-.85-1 1.05.55 2.6.5q2.1 0 4.6-1.45-1.65 2.4-4.5 2.4" fill="#9fcee5" fill-rule="evenodd" transform="translate(12.55 .6)"/><path d="M3.05 9.05q.05-.5 1.25-.5 1.25 0 1.35.45.5 2.55-1.4 2.6-.95.05-1.2-1.25v-1.3" fill="#66838a" fill-rule="evenodd" transform="translate(12.55 .6)"/><path d="m30.6 14.3-.3.3-.25.35-.3.3-.25.35-.95.85-.2.15-.15.15-.5.4-.25.15-.2.2-.8.5-.2.2-2.15 1.15-2.25.85-2.4.6-2.5.15-4.8-.45-3.5-1.1-2.05-1.1-1.8-1.35-.75-.8L2.7 14.4" fill="none" stroke="#000909" stroke-linecap="round" stroke-linejoin="round" stroke-width=".95"/><path d="m-11.55.75 3.15 6.6 5.95 8.1-6.7-.85-2.95-10.3.55-3.55" fill="#000909" fill-rule="evenodd" transform="translate(12.55 .6)"/><path d="m17.75 12.95-.25-1.45.05-.7.5 2.9-.3-.75" fill="#fff" fill-rule="evenodd" transform="translate(12.55 .6)"/><path d="m30.1 11.4-.05.7.25 1.45.3.75" fill="none" stroke="#000909" stroke-linecap="round" stroke-linejoin="round" stroke-width=".95"/><path d="m20.1 4.9-2.4 9.35-5 .6 3.65-8q.75-1.45 2.5-7.45l1.25 5.5" fill-rule="evenodd" transform="translate(12.55 .6)"/><path d="m13.35 21-2.15-3.6 7.75-13.5q3.7 14.95 1.75 16.75l-7.35.35" fill-rule="evenodd" transform="translate(12.55 .6)"/></g></defs></svg>

<?xml version="1.0" encoding="UTF-8" standalone="no"?>
<svg xmlns:xlink="http://www.w3.org/1999/xlink" height="82.0px" width="84.85px" xmlns="http://www.w3.org/2000/svg">
  <g transform="matrix(1.0, 0.0, 0.0, 1.0, 37.4, 42.25)">
    <use height="38.0" transform="matrix(1.0, 0.0, 0.0, 1.0, -11.95, -17.45)" width="32.05" xlink:href="#sprite0"/>
    <use height="38.95" transform="matrix(1.0, 0.0, 0.0, 1.0, -12.45, -17.95)" width="33.05" xlink:href="#sprite1"/>
    <use height="21.85" transform="matrix(1.0, 0.0, 0.0, 1.0, -12.55, -0.6)" width="33.9" xlink:href="#shape2"/>
  </g>
  <defs>
    <g id="sprite0" transform="matrix(1.0, 0.0, 0.0, 1.0, -0.05, 0.0)">
      <use height="38.0" transform="matrix(1.0, 0.0, 0.0, 1.0, 0.05, 0.0)" width="32.05" xlink:href="#shape0"/>
    </g>
    <g id="shape0" transform="matrix(1.0, 0.0, 0.0, 1.0, -0.05, 0.0)">
      <path d="M27.35 7.4 Q29.5 11.55 30.9 16.15 32.35 20.85 32.05 25.65 31.7 30.6 27.85 33.75 24.05 36.95 19.1 37.8 L16.5 38.0 Q12.9 38.0 9.45 36.85 4.8 35.25 2.35 31.35 -0.2 27.4 0.05 23.0 0.25 18.6 2.05 13.7 3.85 8.75 7.0 5.05 10.1 1.3 14.7 0.1 L16.5 0.0 Q18.4 0.05 20.2 0.8 24.95 2.85 27.35 7.4" fill="#ffffff" fill-rule="evenodd" stroke="none"/>
    </g>
    <g id="sprite1" transform="matrix(1.0, 0.0, 0.0, 1.0, 0.45, 0.5)">
      <use height="38.95" transform="matrix(1.0, 0.0, 0.0, 1.0, -0.45, -0.5)" width="33.05" xlink:href="#shape1"/>
    </g>
    <g id="shape1" transform="matrix(1.0, 0.0, 0.0, 1.0, 0.45, 0.5)">
      <path d="M27.35 7.4 Q24.95 2.85 20.2 0.8 17.55 -0.3 14.7 0.1 10.1 1.3 7.0 5.05 3.85 8.75 2.05 13.7 0.25 18.6 0.05 23.0 -0.2 27.4 2.35 31.35 4.8 35.25 9.45 36.85 14.1 38.4 19.1 37.8 24.05 36.95 27.85 33.75 31.7 30.6 32.05 25.65 32.35 20.85 30.9 16.15 29.5 11.55 27.35 7.4 Z" fill="none" stroke="#000000" stroke-linecap="round" stroke-linejoin="round" stroke-width="1.0"/>
    </g>
    <g id="shape2" transform="matrix(1.0, 0.0, 0.0, 1.0, 12.55, 0.6)">
      <path d="M7.6 19.65 L3.95 20.1 -0.8 19.6 -5.8 17.5 -7.3 16.65 -10.45 13.0 Q-5.45 15.5 3.95 15.5 13.75 15.5 18.55 12.75 L16.7 15.1 14.35 17.1 11.7 18.75 7.6 19.65" fill="#003427" fill-rule="evenodd" stroke="none"/>
      <path d="M4.3 8.55 Q9.05 8.55 18.45 2.85 L14.95 9.85 13.45 15.35 4.1 16.6 -4.65 16.1 -10.8 3.25 Q-0.45 8.55 4.3 8.55" fill="#8d9caf" fill-rule="evenodd" stroke="none"/>
      <path d="M-3.2 15.85 Q-2.3 21.1 -3.55 21.25 L-8.3 21.2 Q-12.15 20.95 -12.4 20.35 -12.75 19.4 -12.3 12.8 L-11.8 6.35 -3.2 15.85" fill="#000909" fill-rule="evenodd" stroke="none"/>
      <path d="M18.45 2.85 Q16.65 4.7 12.15 6.35 7.65 7.95 4.2 8.0 -3.8 8.1 -11.05 2.5" fill="none" stroke="#000000" stroke-linecap="round" stroke-linejoin="round" stroke-width="1.0"/>
      <path d="M4.7 8.0 L9.2 12.0 17.3 6.4" fill="none" stroke="#000000" stroke-linecap="round" stroke-linejoin="round" stroke-width="1.0"/>
      <path d="M3.2 8.1 L-0.45 12.35 -9.55 6.4" fill="none" stroke="#000000" stroke-linecap="round" stroke-linejoin="round" stroke-width="1.0"/>
      <path d="M3.5 11.45 L4.15 11.2 4.45 18.25 3.45 18.2 3.5 11.45" fill="#000000" fill-rule="evenodd" stroke="none"/>
      <path d="M5.1 11.15 L5.75 11.05 6.8 17.85 5.6 18.5 5.1 11.15" fill="#000000" fill-rule="evenodd" stroke="none"/>
      <path d="M3.85 7.6 Q6.3 7.35 6.6 8.75 7.0 10.45 6.1 11.7 5.45 12.55 4.3 12.6 3.35 12.6 2.7 11.95 2.0 11.2 2.0 9.65 L2.05 9.0 Q2.05 7.75 3.85 7.6" fill="#345659" fill-rule="evenodd" stroke="none"/>
      <path d="M1.05 6.7 L4.2 7.6 Q6.0 7.6 8.3 6.3 8.95 5.9 9.55 6.5 10.1 7.1 9.6 7.75 7.65 10.55 4.3 10.55 2.25 10.55 0.8 9.35 L-0.35 8.05 Q-0.7 7.35 -0.15 6.85 0.45 6.25 1.05 6.7" fill="#345659" fill-rule="evenodd" stroke="none"/>
      <path d="M4.3 9.55 Q2.6 9.55 1.4 8.55 L0.55 7.55 1.6 8.1 4.2 8.6 Q6.3 8.6 8.8 7.15 7.15 9.55 4.3 9.55" fill="#9fcee5" fill-rule="evenodd" stroke="none"/>
      <path d="M3.05 9.05 Q3.1 8.55 4.3 8.55 5.55 8.55 5.65 9.0 6.15 11.55 4.25 11.6 3.3 11.65 3.05 10.35 L3.05 9.05" fill="#66838a" fill-rule="evenodd" stroke="none"/>
      <path d="M18.05 13.7 L17.75 14.0 17.5 14.35 17.2 14.65 16.95 15.0 16.0 15.85 15.8 16.0 15.65 16.15 15.15 16.55 14.9 16.7 14.7 16.9 13.9 17.4 13.7 17.6 11.55 18.75 9.3 19.6 6.9 20.2 4.4 20.35 -0.4 19.9 -3.9 18.8 -5.95 17.7 -7.75 16.35 -8.5 15.55 -9.85 13.8" fill="none" stroke="#000909" stroke-linecap="round" stroke-linejoin="round" stroke-width="0.9500000000000001"/>
      <path d="M-11.55 0.75 L-8.4 7.35 -2.45 15.45 -9.15 14.6 -12.1 4.3 -11.55 0.75" fill="#000909" fill-rule="evenodd" stroke="none"/>
      <path d="M17.75 12.95 L17.5 11.5 17.55 10.8 18.05 13.7 17.75 12.95" fill="#ffffff" fill-rule="evenodd" stroke="none"/>
      <path d="M17.55 10.8 L17.5 11.5 17.75 12.95 18.05 13.7" fill="none" stroke="#000909" stroke-linecap="round" stroke-linejoin="round" stroke-width="0.9500000000000001"/>
      <path d="M20.1 4.9 L17.7 14.25 12.7 14.85 16.35 6.85 Q17.1 5.4 18.85 -0.6 L20.1 4.9" fill="#000000" fill-rule="evenodd" stroke="none"/>
      <path d="M13.35 21.0 L11.2 17.4 18.95 3.9 Q22.65 18.85 20.7 20.65 L13.35 21.0" fill="#000000" fill-rule="evenodd" stroke="none"/>
    </g>
  </defs>
</svg>
